img/icon-updated-2.svg

<svg fill="none" height="17" viewBox="0 0 16 17" width="16" xmlns="http://www.w3.org/2000/svg"><path clip-rule="evenodd" d="m1.5 8.7793c0-1.72391.68482-3.37721 1.90381-4.5962 1.21898-1.21898 2.87228-1.9038 4.59619-1.9038s3.3772.68482 4.5962 1.9038c1.219 1.21899 1.9038 2.87229 1.9038 4.5962 0 1.7239-.6848 3.3772-1.9038 4.5962s-2.87229 1.9038-4.5962 1.9038-3.37721-.6848-4.59619-1.9038c-1.21899-1.219-1.90381-2.8723-1.90381-4.5962zm6.5-8.000003c-2.12173 0-4.15656.842853-5.65685 2.343143-1.500295 1.50029-2.34315 3.53513-2.34315 5.65686 0 2.1217.842855 4.1566 2.34315 5.6569 1.50029 1.5002 3.53512 2.3431 5.65685 2.3431 2.1217 0 4.1566-.8429 5.6569-2.3431 1.5002-1.5003 2.3431-3.5352 2.3431-5.6569 0-2.12173-.8429-4.15657-2.3431-5.65686-1.5003-1.50029-3.5352-2.343143-5.6569-2.343143zm.5 4.750003c0-.19892-.07902-.38968-.21967-.53033-.14065-.14066-.33142-.21967-.53033-.21967s-.38968.07901-.53033.21967c-.14065.14065-.21967.33141-.21967.53033v3.5c.00003.14978.04492.29612.12886.42016.08395.12405.20311.22012.34214.27584l2.5 1c.1831.0669.3851.0598.5631-.0197s.3181-.2252.3905-.4062.0715-.38306-.0025-.56341-.2154-.32479-.3941-.40269l-2.028-.812z" fill="#000" fill-rule="evenodd"/></svg>

<svg width="16" height="17" viewBox="0 0 16 17" fill="none" xmlns="http://www.w3.org/2000/svg">
<path fill-rule="evenodd" clip-rule="evenodd" d="M1.5 8.7793C1.5 7.05539 2.18482 5.40209 3.40381 4.1831C4.62279 2.96412 6.27609 2.2793 8 2.2793C9.72391 2.2793 11.3772 2.96412 12.5962 4.1831C13.8152 5.40209 14.5 7.05539 14.5 8.7793C14.5 10.5032 13.8152 12.1565 12.5962 13.3755C11.3772 14.5945 9.72391 15.2793 8 15.2793C6.27609 15.2793 4.62279 14.5945 3.40381 13.3755C2.18482 12.1565 1.5 10.5032 1.5 8.7793ZM8 0.779297C5.87827 0.779297 3.84344 1.62215 2.34315 3.12244C0.842855 4.62273 0 6.65757 0 8.7793C0 10.901 0.842855 12.9359 2.34315 14.4362C3.84344 15.9364 5.87827 16.7793 8 16.7793C10.1217 16.7793 12.1566 15.9364 13.6569 14.4362C15.1571 12.9359 16 10.901 16 8.7793C16 6.65757 15.1571 4.62273 13.6569 3.12244C12.1566 1.62215 10.1217 0.779297 8 0.779297V0.779297ZM8.5 5.5293C8.5 5.33038 8.42098 5.13962 8.28033 4.99897C8.13968 4.85831 7.94891 4.7793 7.75 4.7793C7.55109 4.7793 7.36032 4.85831 7.21967 4.99897C7.07902 5.13962 7 5.33038 7 5.5293V9.0293C7.00003 9.17908 7.04492 9.32542 7.12886 9.44946C7.21281 9.57351 7.33197 9.66958 7.471 9.7253L9.971 10.7253C10.1541 10.7922 10.3561 10.7851 10.5341 10.7056C10.7121 10.6261 10.8522 10.4804 10.9246 10.2994C10.997 10.1184 10.9961 9.91634 10.9221 9.73599C10.8481 9.55564 10.7067 9.4112 10.528 9.3333L8.5 8.5213V5.5293Z" fill="black"/>
</svg>
